svg/color/cel.svg

<svg width="32" height="32" viewBox="0 0 32 32" fill="none" xmlns="http://www.w3.org/2000/svg">
<path d="M14.2933 0.170665C7.30666 1.056 1.91999 5.92 0.415992 12.7253C0.0746591 14.2613 0.0213258 16.9707 0.298659 18.6133C1.41866 25.152 6.20799 30.1333 12.7787 31.5947C14.1973 31.9147 17.6107 31.936 18.9867 31.648C22.1973 30.9547 24.7253 29.632 26.9653 27.4773C28.384 26.112 29.2693 24.928 30.1227 23.232C30.8587 21.8027 31.3387 20.4053 31.648 18.8267C31.9253 17.3547 31.904 14.3893 31.584 12.9067C30.8907 9.664 29.504 7.09333 27.2107 4.78933C24.9067 2.48533 22.112 0.991999 18.976 0.373332C18.1013 0.202665 15.0933 0.0746654 14.2933 0.170665ZM18.56 6.38933C20.1173 6.83733 22.1867 8.04267 22.1867 8.50133C22.1867 8.672 21.3227 9.54667 20.8213 9.888C20.5867 10.048 20.5227 10.0267 19.3813 9.45067C17.888 8.69333 17.0133 8.49067 15.52 8.56533C12.1707 8.72533 9.46133 10.976 8.62933 14.2827C8.18133 16.0533 8.51199 18.208 9.46133 19.8293C10.3253 21.2907 11.9147 22.5493 13.6213 23.1253C14.3467 23.3707 14.6347 23.4027 15.8933 23.4027C17.1947 23.4027 17.4187 23.3813 18.1867 23.104C19.232 22.7413 19.9893 22.3253 20.6613 21.7173C20.9387 21.4613 21.28 21.2053 21.4187 21.1307C21.6853 20.9813 21.792 21.024 22.752 21.6747C23.5627 22.2187 23.552 22.3893 22.688 23.2213C21.504 24.3627 19.968 25.216 18.2933 25.664C17.2587 25.9413 14.5493 25.952 13.568 25.6747C10.9973 24.9707 8.97066 23.5307 7.56266 21.3973C6.36799 19.5947 5.91999 17.92 6.00533 15.6373C6.07999 13.5893 6.52799 12.1493 7.61599 10.5173C9.02399 8.40533 11.3707 6.79467 13.8133 6.25067C14.912 6.00533 17.4827 6.08 18.56 6.38933ZM25.0667 10.3467C26.848 11.264 26.8267 13.8347 25.024 14.6773C22.9013 15.6693 20.7893 13.5147 21.824 11.4347C22.432 10.208 23.8613 9.728 25.0667 10.3467Z" fill="black"/>
<path d="M23.6267 11.8613C23.328 12.032 23.2533 12.16 23.2533 12.544C23.2533 12.8747 23.488 13.184 23.7867 13.2373C24.1173 13.3013 24.544 13.1093 24.64 12.8427C24.8 12.4373 24.768 12.2773 24.48 12C24.2027 11.712 23.9573 11.6693 23.6267 11.8613Z" fill="black"/>
</svg>

<svg width="32" height="32" viewBox="0 0 32 32" fill="none" xmlns="http://www.w3.org/2000/svg"><path d="M14.293.17C7.307 1.057 1.92 5.92.416 12.726c-.341 1.536-.395 4.246-.117 5.888 1.12 6.539 5.909 11.52 12.48 12.982 1.418.32 4.832.341 6.208.053 3.21-.693 5.738-2.016 7.978-4.17 1.419-1.366 2.304-2.55 3.158-4.246a16.11 16.11 0 001.525-4.405c.277-1.472.256-4.438-.064-5.92-.693-3.243-2.08-5.814-4.373-8.118C24.907 2.485 22.112.992 18.976.373c-.875-.17-3.883-.298-4.683-.202zm4.267 6.22c1.557.447 3.627 1.653 3.627 2.111 0 .171-.864 1.046-1.366 1.387-.234.16-.298.139-1.44-.437-1.493-.758-2.368-.96-3.861-.886-3.35.16-6.059 2.411-6.89 5.718-.449 1.77-.118 3.925.831 5.546.864 1.462 2.454 2.72 4.16 3.296.726.246 1.014.278 2.272.278 1.302 0 1.526-.022 2.294-.299 1.045-.363 1.802-.779 2.474-1.387.278-.256.619-.512.758-.586.266-.15.373-.107 1.333.544.81.544.8.714-.064 1.546-1.184 1.142-2.72 1.995-4.395 2.443-1.034.277-3.744.288-4.725.01-2.57-.703-4.597-2.143-6.005-4.277-1.195-1.802-1.643-3.477-1.558-5.76.075-2.048.523-3.488 1.611-5.12 1.408-2.112 3.755-3.722 6.197-4.266 1.099-.246 3.67-.171 4.747.138zm6.507 3.957c1.781.917 1.76 3.488-.043 4.33-2.123.992-4.235-1.162-3.2-3.242.608-1.227 2.037-1.707 3.243-1.088z" fill="#000"/><path d="M23.627 11.861c-.299.171-.374.299-.374.683 0 .33.235.64.534.693.33.064.757-.128.853-.394.16-.406.128-.566-.16-.843-.277-.288-.523-.33-.853-.139z" fill="#000"/></svg>
